!!!OTL: ICH GEH AUF DIE KIRCHMESS
!!!ARE: Europa, Mitteleuropa, Deutschland, Meiningerland, Vachdorf
!!!SCT: E0995
!!!YEM: Copyright 1995, estate of Helmut Schaffrath.
**kern
*ICvox
*Ivox
*M6/8
*k[]
*C:
{8G
=1
8c
8c
8c
8d
8d
8d
=2
8e
8e
8e
4d}
{8G
=3
8G
8G
8A
4B
8d
=4
8c
8A
8F#
4G}
{8G
=5
8G
8G
8A
8B
8B
8c
=6
8d
8d
8e
4d}
{8G
=7
8G
8G
8A
8B
8B
8c
=8
8d
8d
8e
4d}
{8g
=9
8e
8r
8e
8d
8r
8d
=10
4c
8e
4g}
{8g
=11
8e
8r
8e
8d
8r
8d
=12
8c
2r}
==
!!!AGN: Tanz - Lied, Reigen, Kirmes
!!!ONB: ESAC (Essen Associative Code) Database: ERK2
!!!AMT: compound duple
!!!AIN: vox
!!!EED: Helmut Schaffrath
!!!EEV: 1.0
*-
